X: 1
T: McDonagh's
R: reel
M: 4/4
L: 1/8
K: Edor
B2Ad BEED|EB,EB ~B2EB|BAFA D3E|FDFA BAFA|
B2A=c BEED|EB,EB ~B2EB|BAGF GABc|dBAG FDFA:|
|:d2ef gfed|fB~B2 fB~B2|d2ef gfed|ceae ceae|
d2ef gfed|fB~B2 fB~B2|~a2ge fdec|dBAG FDFA:|


Tune 1963	Setting 15395

